svg/u1f3a2.svg

<svg viewBox="0 0 128 128" xmlns="http://www.w3.org/2000/svg">
  <polygon points="103.71,57.38 103.4,124.37 113.92,124.37 114.31,55.86 " fill="#71DE81"/>
  <polygon points="68.35,73.37 67.81,124.43 78.39,124.37 78.79,72.19 " fill="#71DE81"/>
  <polygon points="33.73,107.72 33.47,124.41 42.81,124.41 43.23,106.88 " fill="#71DE81"/>
  <path d="M38.55,91.97l-6.74,14.12c0,0,0.46,2.91,1.37,3.01c0.91,0.09,9.62-0.16,10.71-0.16 c1.09,0,2.41-17.6,2.59-18.6c0.18-1,0.64-3.83,0.64-3.83L38.55,91.97z" fill="#02AB46"/>
  <path d="M65.33,67.56c0,0,1.09,6.92,2.19,7.47c1.09,0.55,11.11,0.09,12.02-0.09 c0.91-0.18,4.1-20.22,4.1-20.22L65.33,67.56z" fill="#02AB46"/>
  <path d="M99.76,46.25c0,0,2.55,12.66,3.55,12.93c0.71,0.19,10.29,0.18,11.11,0c0.82-0.18,4.65-16.4,4.65-16.4 L99.76,46.25z" fill="#02AB46"/>
  <path d="M29.66,55.55c-0.38,0.51-2.48,13.83-1.68,15.07c0.8,1.24,4.08,2.13,4.96,2.13 c0.89,0,9.93-10.55,9.93-10.55l9.84-7.71l8.42-6.91l13.74-8.6l8.86-4.96l14.09-5.05l7.53-0.35l18.35-9.69c0,0,0.07-4.14-0.14-4.61 c-0.32-0.72-12.41-0.85-23.92,0.85c-12.76,1.88-27.78,9-38.59,15.69C42.97,42.03,30.26,54.74,29.66,55.55z" fill="#014EAB"/>
  <path d="M123.78,44.02c0,0-25.98,0.33-49.77,18.21s-38.19,40.45-43.23,48.09s-8.65,13.99-8.65,13.99 l-17.57,0.25l6.25-12.15l23.26-31.08L56.83,57.9l20.31-14.41l16.84-7.64l15.97-3.47l14.14-0.82L123.78,44.02z" fill="#FB3028"/>
  <path d="M10.41,124.48l-3.14,0.03c0.23-0.36,24.23-37.21,40.06-52.36C63.6,56.61,76.6,46.24,94.97,39.21 c15.5-5.93,28.51-5.15,29.06-5.11l-0.05,2.47c-0.13-0.01-13.15-0.75-28.12,4.97c-17.98,6.88-30.77,17.1-46.8,32.42 C33.45,88.91,10.65,124.13,10.41,124.48z" fill="#CF1636"/>
  <path d="M5.25,124.55l-3.38,0.03c0.25-0.4,26.28-40.96,42.87-56.83c16.48-15.77,28.5-25.17,48.4-32.78 c16.26-6.22,30.34-4.89,30.94-4.82l-0.06,2.49c-0.14-0.01-14.31-1.33-29.99,4.67c-19.51,7.46-31.33,16.72-47.57,32.25 C30.1,85.22,5.51,124.15,5.25,124.55z" fill="#CF1636"/>
  <polygon points="72.65,63.32 63.5,52.5 67.76,49.26 75.44,61.22 " fill="#CF1636"/>
  <polygon points="110.08,45.92 106.97,32.15 112.24,31.48 113.42,45.23 " fill="#CF1636"/>
  <polygon points="43.03,93.09 32.18,83.83 35.45,80.35 45.1,90.45 " fill="#CF1636"/>
  <polygon points="19.9,124.35 8.17,116.84 10.77,112.94 23.25,122.44 22.14,124.35 " fill="#CF1636"/>
  <polygon points="84.32,40.4 86.49,44.59 89.93,42.63 87.97,38.44 " fill="#CF1636"/>
  <polygon points="22.54,96.75 26.31,99.62 23.77,102.61 20.39,100.14 " fill="#CF1636"/>
  <path d="M48.07,44.64c-0.11-0.33-4.02-9.36-4.84-10.01s-3.59,1.04-3.59,1.04l-1.04,8.48l4.43,6.29 L48.07,44.64z" fill="#1B2A89"/>
  <path d="M70,30.47c0,0-2.79-7.22-3.23-8.21s-1.15-2.3-1.97-2.41c-0.82-0.11-3.17,3.17-3.17,3.17l-1.09,7.38 l2.52,5.42L70,30.47z" fill="#1B2A89"/>
  <path d="M96.7,20.18c0,0-1.41-5.19-2.17-7.97c-0.68-2.51-1.88-3.57-2.81-3.57s-2.79,1.7-2.79,1.7l-1.09,3.94 l0.05,8.75L96.7,20.18z" fill="#1B2A89"/>
  <path d="M115.84,18.43l7.28-0.98c0,0-0.16-7.6-0.16-9.14s-0.16-2.95-1.48-3.06s-4.05,1.86-4.05,1.86 l-2.68,6.78L115.84,18.43z" fill="#1B2A89"/>
  <path d="M122.19,5.49c0,0-1.86-0.13-3.12,1.51s-1.59,3.34-2.08,5.63s-0.38,5.96-0.38,5.96l-4.62-0.57 c0,0,0.36-4.47,0.86-6.77s1.47-5.01,3.2-6.28c0.99-0.73,2.27-0.86,3.72-0.66C121.18,4.51,122.19,5.49,122.19,5.49z" fill="#FDC318"/>
  <path d="M89.77,22.2c0,0-0.27-8.88-0.05-10.23c0.19-1.19,0.82-2.09,1.37-2.52c0.71-0.55,1.61-0.48,1.61-0.48 s-1.32-1.24-3.89-0.36c-2.42,0.83-3.04,3.58-3.13,5.71c-0.11,2.41,0.11,10.07,0.11,10.07L89.77,22.2z" fill="#FDC318"/>
  <path d="M64.2,34.41c0,0-1.05-4.23-1.42-7.33c-0.44-3.61,0.27-4.7,0.6-5.31c0.6-1.1,1.64-1.91,1.64-1.91 s-1.64-0.7-3.39,0.15c-2.36,1.15-3.32,3.82-2.97,7.31c0.36,3.59,1.71,9.21,1.71,9.21L64.2,34.41z" fill="#FDC318"/>
  <path d="M43.25,34.64c0,0-2.29,0.48-2.18,3.21c0.11,2.74,2.24,10.72,2.24,10.72l-3.53,3.08 c0,0-2.87-9.69-2.81-12.54c0.05-2.84,1.04-3.92,2.08-4.6C41.18,33.12,43.25,34.64,43.25,34.64z" fill="#FDC318"/>
  <path d="M34.28,55.36c-0.22,0.33-1.7,11.32-2.02,13.07c-0.33,1.75-0.44,4.19,0.68,4.31 c1.12,0.12,2.87-1.63,4.18-3s15.81-14.5,15.81-14.5l-4.6-11.43L34.28,55.36z" fill="#07BFF0"/>
  <polygon points="53.57,40.08 70.66,29.59 75.04,39.66 58.3,50.24 " fill="#07BFF0"/>
  <polygon points="77.39,26.26 97.19,19.04 99.1,29.05 81.16,35.88 " fill="#07BFF0"/>
  <polygon points="104.14,17.5 104.25,28.77 123.67,28.39 123.72,17.01 " fill="#07BFF0"/>
  <polygon points="50.34,48.66 32.82,64.76 32.13,69.22 51.56,51.7 " fill="#FFFFFF"/>
  <polygon points="55.86,44.95 72.87,34.66 73.88,37 57.01,47.5 " fill="#FFFFFF"/>
  <polygon points="79.25,31 98.14,23.97 98.66,26.71 80.31,33.7 " fill="#FFFFFF"/>
  <polygon points="104.19,23.47 123.7,23.13 123.68,25.82 104.2,26.24 " fill="#FFFFFF"/>
  <circle cx="79.46" cy="38.86" r="3.7" fill="#4B4C4E"/>
  <circle cx="101.77" cy="30.15" r="3.7" fill="#4B4C4E"/>
  <circle cx="121.25" cy="27.8" r="3.7" fill="#4B4C4E"/>
  <circle cx="57.05" cy="53.56" r="3.7" fill="#4B4C4E"/>
  <circle cx="37.13" cy="72.39" r="3.7" fill="#4B4C4E"/>
</svg>

<svg viewBox="0 0 128 128" xmlns="http://www.w3.org/2000/svg">
  <defs/>
  <path d="M103.71,57.38 L103.4,124.37 L113.92,124.37 L114.31,55.86 Z" fill="#71DE81"/>
  <path d="M68.35,73.37 L67.81,124.43 L78.39,124.37 L78.79,72.19 Z" fill="#71DE81"/>
  <path d="M33.73,107.72 L33.47,124.41 L42.81,124.41 L43.23,106.88 Z" fill="#71DE81"/>
  <path d="M38.55,91.97 L31.81,106.09 C31.81,106.09 32.27,109 33.18,109.1 C34.09,109.19 42.8,108.94 43.89,108.94 C44.98,108.94 46.3,91.34 46.48,90.34 C46.66,89.34 47.12,86.51 47.12,86.51 L38.55,91.97 Z" fill="#02AB46"/>
  <path d="M65.33,67.56 C65.33,67.56 66.42,74.48 67.52,75.03 C68.61,75.58 78.63,75.12 79.54,74.94 C80.45,74.76 83.64,54.72 83.64,54.72 L65.33,67.56 Z" fill="#02AB46"/>
  <path d="M99.76,46.25 C99.76,46.25 102.31,58.91 103.31,59.18 C104.02,59.37 113.6,59.36 114.42,59.18 C115.24,59 119.07,42.78 119.07,42.78 L99.76,46.25 Z" fill="#02AB46"/>
  <path d="M29.66,55.55 C29.28,56.06 27.18,69.38 27.98,70.62 C28.78,71.86 32.06,72.75 32.94,72.75 C33.83,72.75 42.87,62.2 42.87,62.2 L52.71,54.49 L61.13,47.58 L74.87,38.98 L83.73,34.02 L97.82,28.97 L105.35,28.62 L123.7,18.93 C123.7,18.93 123.77,14.79 123.56,14.32 C123.24,13.6 111.15,13.47 99.64,15.17 C86.88,17.05 71.86,24.17 61.05,30.86 C42.97,42.03 30.26,54.74 29.66,55.55 Z" fill="#014EAB"/>
  <path d="M123.78,44.02 C123.78,44.02 97.8,44.35 74.01,62.23 C50.22,80.11 35.82,102.68 30.78,110.32 C25.74,117.96 22.13,124.31 22.13,124.31 L4.56,124.56 L10.81,112.41 L34.07,81.33 L56.83,57.9 L77.14,43.49 L93.98,35.85 L109.95,32.38 L124.09,31.56 L123.78,44.02 Z" fill="#FB3028"/>
  <path d="M10.41,124.48 L7.27,124.51 C7.5,124.15 31.5,87.3 47.33,72.15 C63.6,56.61 76.6,46.24 94.97,39.21 C110.47,33.28 123.48,34.06 124.03,34.1 L123.98,36.57 C123.85,36.56 110.83,35.82 95.86,41.54 C77.88,48.42 65.09,58.64 49.06,73.96 C33.45,88.91 10.65,124.13 10.41,124.48 Z" fill="#CF1636"/>
  <path d="M5.25,124.55 L1.87,124.58 C2.12,124.18 28.15,83.62 44.74,67.75 C61.22,51.98 73.24,42.58 93.14,34.97 C109.4,28.75 123.48,30.08 124.08,30.15 L124.02,32.64 C123.88,32.63 109.71,31.31 94.03,37.31 C74.52,44.77 62.7,54.03 46.46,69.56 C30.1,85.22 5.51,124.15 5.25,124.55 Z" fill="#CF1636"/>
  <path d="M72.65,63.32 L63.5,52.5 L67.76,49.26 L75.44,61.22 Z" fill="#CF1636"/>
  <path d="M110.08,45.92 L106.97,32.15 L112.24,31.48 L113.42,45.23 Z" fill="#CF1636"/>
  <path d="M43.03,93.09 L32.18,83.83 L35.45,80.35 L45.1,90.45 Z" fill="#CF1636"/>
  <path d="M19.9,124.35 L8.17,116.84 L10.77,112.94 L23.25,122.44 L22.14,124.35 Z" fill="#CF1636"/>
  <path d="M84.32,40.4 L86.49,44.59 L89.93,42.63 L87.97,38.44 Z" fill="#CF1636"/>
  <path d="M22.54,96.75 L26.31,99.62 L23.77,102.61 L20.39,100.14 Z" fill="#CF1636"/>
  <path d="M48.07,44.64 C47.96,44.31 44.05,35.28 43.23,34.63 C42.41,33.98 39.64,35.67 39.64,35.67 L38.6,44.15 L43.03,50.44 L48.07,44.64 Z" fill="#1B2A89"/>
  <path d="M70,30.47 C70,30.47 67.21,23.25 66.77,22.26 C66.33,21.27 65.62,19.96 64.8,19.85 C63.98,19.74 61.63,23.02 61.63,23.02 L60.54,30.4 L63.06,35.82 L70,30.47 Z" fill="#1B2A89"/>
  <path d="M96.7,20.18 C96.7,20.18 95.29,14.99 94.53,12.21 C93.85,9.7 92.65,8.64 91.72,8.64 C90.79,8.64 88.93,10.34 88.93,10.34 L87.84,14.28 L87.89,23.03 L96.7,20.18 Z" fill="#1B2A89"/>
  <path d="M115.84,18.43 L123.12,17.45 C123.12,17.45 122.96,9.85 122.96,8.31 C122.96,6.77 122.8,5.36 121.48,5.25 C120.16,5.14 117.43,7.11 117.43,7.11 L114.75,13.89 L115.84,18.43 Z" fill="#1B2A89"/>
  <path d="M122.19,5.49 C122.19,5.49 120.33,5.36 119.07,7 C117.81,8.64 117.48,10.34 116.99,12.63 C116.5,14.92 116.61,18.59 116.61,18.59 L111.99,18.02 C111.99,18.02 112.35,13.55 112.85,11.25 C113.35,8.95 114.32,6.24 116.05,4.97 C117.04,4.24 118.32,4.11 119.77,4.31 C121.18,4.51 122.19,5.49 122.19,5.49 Z" fill="#FDC318"/>
  <path d="M89.77,22.2 C89.77,22.2 89.5,13.32 89.72,11.97 C89.91,10.78 90.54,9.88 91.09,9.45 C91.8,8.9 92.7,8.97 92.7,8.97 C92.7,8.97 91.38,7.73 88.81,8.61 C86.39,9.44 85.77,12.19 85.68,14.32 C85.57,16.73 85.79,24.39 85.79,24.39 L89.77,22.2 Z" fill="#FDC318"/>
  <path d="M64.2,34.41 C64.2,34.41 63.15,30.18 62.78,27.08 C62.34,23.47 63.05,22.38 63.38,21.77 C63.98,20.67 65.02,19.86 65.02,19.86 C65.02,19.86 63.38,19.16 61.63,20.01 C59.27,21.16 58.31,23.83 58.66,27.32 C59.02,30.91 60.37,36.53 60.37,36.53 L64.2,34.41 Z" fill="#FDC318"/>
  <path d="M43.25,34.64 C43.25,34.64 40.96,35.12 41.07,37.85 C41.18,40.59 43.31,48.57 43.31,48.57 L39.78,51.65 C39.78,51.65 36.91,41.96 36.97,39.11 C37.02,36.27 38.01,35.19 39.05,34.51 C41.18,33.12 43.25,34.64 43.25,34.64 Z" fill="#FDC318"/>
  <path d="M34.28,55.36 C34.06,55.69 32.58,66.68 32.26,68.43 C31.93,70.18 31.82,72.62 32.94,72.74 C34.06,72.86 35.81,71.11 37.12,69.74 C38.43,68.37 52.93,55.24 52.93,55.24 L48.33,43.81 L34.28,55.36 Z" fill="#07BFF0"/>
  <path d="M53.57,40.08 L70.66,29.59 L75.04,39.66 L58.3,50.24 Z" fill="#07BFF0"/>
  <path d="M77.39,26.26 L97.19,19.04 L99.1,29.05 L81.16,35.88 Z" fill="#07BFF0"/>
  <path d="M104.14,17.5 L104.25,28.77 L123.67,28.39 L123.72,17.01 Z" fill="#07BFF0"/>
  <path d="M50.34,48.66 L32.82,64.76 L32.13,69.22 L51.56,51.7 Z" fill="#FFFFFF"/>
  <path d="M55.86,44.95 L72.87,34.66 L73.88,37 L57.01,47.5 Z" fill="#FFFFFF"/>
  <path d="M79.25,31 L98.14,23.97 L98.66,26.71 L80.31,33.7 Z" fill="#FFFFFF"/>
  <path d="M104.19,23.47 L123.7,23.13 L123.68,25.82 L104.2,26.24 Z" fill="#FFFFFF"/>
  <path d="M83.16,38.86 A3.7 3.7 0 1 1 75.76,38.86 A3.7 3.7 0 1 1 83.16,38.86 Z" fill="#4B4C4E"/>
  <path d="M105.47,30.15 A3.7 3.7 0 1 1 98.07,30.15 A3.7 3.7 0 1 1 105.47,30.15 Z" fill="#4B4C4E"/>
  <path d="M124.95,27.8 A3.7 3.7 0 1 1 117.55,27.8 A3.7 3.7 0 1 1 124.95,27.8 Z" fill="#4B4C4E"/>
  <path d="M60.75,53.56 A3.7 3.7 0 1 1 53.35,53.56 A3.7 3.7 0 1 1 60.75,53.56 Z" fill="#4B4C4E"/>
  <path d="M40.83,72.39 A3.7 3.7 0 1 1 33.43,72.39 A3.7 3.7 0 1 1 40.83,72.39 Z" fill="#4B4C4E"/>
</svg>
